svg/azure-firewall.svg

<?xml version="1.0" encoding="UTF-8"?>
<svg xmlns="http://www.w3.org/2000/svg" xmlns:xlink="http://www.w3.org/1999/xlink" width="32" height="32" viewBox="0 0 32 32">
<defs>
<linearGradient id="linear-pattern-0" gradientUnits="userSpaceOnUse" x1="9" y1="14.14" x2="9" y2="1.38" gradientTransform="matrix(1.777778, 0.00266842, -0.00266842, 1.777778, 0, 0)">
<stop offset="0" stop-color="rgb(0%, 47.058824%, 83.137255%)" stop-opacity="1"/>
<stop offset="0.82" stop-color="rgb(36.862745%, 62.745098%, 93.72549%)" stop-opacity="1"/>
</linearGradient>
</defs>
<path fill-rule="nonzero" fill="url(#linear-pattern-0)" d="M 32 18.027344 C 31.886719 14.507812 29.25 11.585938 25.761719 11.109375 C 25.539062 6.160156 21.382812 2.300781 16.425781 2.453125 C 12.476562 2.378906 8.910156 4.8125 7.539062 8.515625 C 3.332031 9.023438 0.128906 12.53125 0 16.765625 C 0.183594 21.5625 4.214844 25.308594 9.011719 25.136719 L 24.390625 25.136719 C 24.519531 25.148438 24.648438 25.148438 24.78125 25.136719 C 28.710938 25.101562 31.90625 21.957031 32 18.027344 "/>
<path fill-rule="nonzero" fill="rgb(50.980392%, 6.27451%, 6.27451%)" fill-opacity="1" d="M 25.40625 19.894531 C 25.394531 19.488281 25.0625 19.164062 24.65625 19.164062 L 7.34375 19.164062 C 6.9375 19.164062 6.605469 19.488281 6.59375 19.894531 L 6.59375 28.78125 C 6.605469 29.1875 6.9375 29.511719 7.34375 29.511719 L 24.65625 29.511719 C 25.0625 29.511719 25.394531 29.1875 25.40625 28.78125 Z M 25.40625 19.894531 "/>
<path fill-rule="nonzero" fill="rgb(90.196078%, 13.72549%, 13.72549%)" fill-opacity="1" d="M 7.644531 20.195312 L 12.746094 20.195312 L 12.746094 22.453125 L 7.644531 22.453125 Z M 7.644531 20.195312 "/>
<path fill-rule="nonzero" fill="rgb(100%, 45.098039%, 50.588235%)" fill-opacity="1" d="M 13.511719 20.195312 L 18.613281 20.195312 L 18.613281 22.453125 L 13.511719 22.453125 Z M 13.511719 20.195312 "/>
<path fill-rule="nonzero" fill="rgb(90.196078%, 13.72549%, 13.72549%)" fill-opacity="1" d="M 19.378906 20.195312 L 24.480469 20.195312 L 24.480469 22.453125 L 19.378906 22.453125 Z M 7.644531 23.21875 L 9.761719 23.21875 L 9.761719 25.476562 L 7.644531 25.476562 Z M 7.644531 23.21875 "/>
<path fill-rule="nonzero" fill="rgb(100%, 45.098039%, 50.588235%)" fill-opacity="1" d="M 22.363281 23.21875 L 24.480469 23.21875 L 24.480469 25.476562 L 22.363281 25.476562 Z M 10.523438 23.21875 L 15.625 23.21875 L 15.625 25.476562 L 10.523438 25.476562 Z M 10.523438 23.21875 "/>
<path fill-rule="nonzero" fill="rgb(90.196078%, 13.72549%, 13.72549%)" fill-opacity="1" d="M 16.410156 23.21875 L 21.511719 23.21875 L 21.511719 25.476562 L 16.410156 25.476562 Z M 7.644531 26.238281 L 12.746094 26.238281 L 12.746094 28.496094 L 7.644531 28.496094 Z M 7.644531 26.238281 "/>
<path fill-rule="nonzero" fill="rgb(100%, 45.098039%, 50.588235%)" fill-opacity="1" d="M 13.511719 26.238281 L 18.613281 26.238281 L 18.613281 28.496094 L 13.511719 28.496094 Z M 13.511719 26.238281 "/>
<path fill-rule="nonzero" fill="rgb(90.196078%, 13.72549%, 13.72549%)" fill-opacity="1" d="M 19.378906 26.238281 L 24.480469 26.238281 L 24.480469 28.496094 L 19.378906 28.496094 Z M 19.378906 26.238281 "/>
</svg>

<svg role="img" viewBox="0 0 32 32" xmlns="http://www.w3.org/2000/svg"><defs><linearGradient gradientTransform="rotate(.086)scale(1.77778)" gradientUnits="userSpaceOnUse" id="azure-firewall_svg__a" x1="9" x2="9" y1="14.14" y2="1.38"><stop offset="0" stop-color="rgb(0%, 47.058824%, 83.137256%)"/><stop offset=".82" stop-color="rgb(36.862746%, 62.7451%, 93.725491%)"/></linearGradient></defs><path d="M32 18.027a7.22 7.22 0 0 0-6.238-6.918c-.223-4.949-4.38-8.808-9.336-8.656a9.29 9.29 0 0 0-8.887 6.063A8.57 8.57 0 0 0 0 16.766c.184 4.797 4.215 8.543 9.012 8.37H24.39q.192.018.39 0A7.285 7.285 0 0 0 32 18.028" fill="url(#azure-firewall_svg__a)"/><path d="M25.406 19.895a.75.75 0 0 0-.75-.73H7.344a.75.75 0 0 0-.75.73v8.886a.75.75 0 0 0 .75.73h17.312a.75.75 0 0 0 .75-.73Zm0 0" fill="rgb(50.980395%, 6.27451%, 6.27451%)"/><path d="M7.645 20.195h5.101v2.258H7.645Zm0 0" fill="rgb(90.196079%, 13.725491%, 13.725491%)"/><path d="M13.512 20.195h5.101v2.258h-5.101Zm0 0" fill="rgb(100%, 45.09804%, 50.588238%)"/><path d="M19.379 20.195h5.101v2.258h-5.1ZM7.645 23.22h2.117v2.258H7.645Zm0 0" fill="rgb(90.196079%, 13.725491%, 13.725491%)"/><path d="M22.363 23.219h2.117v2.258h-2.117Zm-11.84 0h5.102v2.258h-5.102Zm0 0" fill="rgb(100%, 45.09804%, 50.588238%)"/><path d="M16.41 23.219h5.102v2.258H16.41Zm-8.765 3.02h5.101v2.257H7.645Zm0 0" fill="rgb(90.196079%, 13.725491%, 13.725491%)"/><path d="M13.512 26.238h5.101v2.258h-5.101Zm0 0" fill="rgb(100%, 45.09804%, 50.588238%)"/><path d="M19.379 26.238h5.101v2.258h-5.1Zm0 0" fill="rgb(90.196079%, 13.725491%, 13.725491%)"/></svg>
